X: 29287
T: New Rigged Ship, The
R: jig
M: 6/8
K: Gmajor
dcd d2 f|dcd dAf|ecA Acd|ecA ABc|
dcd d2 f|dcd d2 f|ecA ABc|d3:|
|:a2 f a2 f|ded dga|b2 g b2 g|efe efg|
a2 f a2 f|ded g3|ecA ABc|d3:|
GAG G2 B|GAG GDB|AFD DFG|AFD DEF|
G2 G GDB|G2 G GDB|AFD DD/E/F|G3:|
d2 B d2 B|GDG Gcd|e2 c edc|A2 A ABc|
d2 B dcB|GDG c2 B|AFD D>EF|G3:|

